X: 563
T: The Cowboy Jig
B: good tune book
B: tunes
M:6/8
R: jig
Q: 3/8=100
K:Gmajor
V:1 
|:GDE G2A|Bgf gdB|ABc B2A|B3 AGE|
 GDE G2A|Bgf gdB|ABc B2A|1 BGG G2A:|2 BGG GBd||
 |:e3 edB|egf edB|d3 d2B|dge dBG|
 c2d e2d|egB A2e|dBG B2A|1 BGG GBd:|2 BGG G2A||
% abcbook-tune_id 63dce26e6811f66960dd651e
% abcbook-tune_composer_id 
% abcbook-link-0 https://www.youtube.com/watch?v=7XdLOu4CBkU
% abcbook-link-start-at-0 45
% abcbook-boost 0
% abcbook-difficulty 0
% abcbook-tags good tune book
% abcbook-tablature 
% abcbook-transpose 
% abcbook-tuning 
% abcbook-lastupdated 1675480252069
% abcbook-soundfonts 
% abcbook-repeats 1


